modules/hawcons-stroke/icons/folder-remove.svg

<?xml version="1.0" encoding="UTF-8" standalone="no"?>
<svg width="32px" height="32px" viewBox="0 0 32 32" version="1.1" xmlns="http://www.w3.org/2000/svg" xmlns:xlink="http://www.w3.org/1999/xlink" xmlns:sketch="http://www.bohemiancoding.com/sketch/ns">
    <!-- Generator: Sketch 3.0.3 (7891) - http://www.bohemiancoding.com/sketch -->
    <title>icon 106 folder remove</title>
    <desc>Created with Sketch.</desc>
    <defs></defs>
    <g id="Page-1" stroke="none" stroke-width="1" fill="none" fill-rule="evenodd" sketch:type="MSPage">
        <g id="icon-106-folder-remove" sketch:type="MSArtboardGroup" fill="#929292">
            <path d="M21.5997073,26 L1.99296544,26 C1.44610862,26 1,25.5559546 1,25.0081969 L1,14 L28,14 L28,18.2070325 C27.5231682,18.0721672 27.0200119,18 26.5,18 C23.4624337,18 21,20.4624337 21,23.5 C21,24.4002236 21.2162787,25.2499326 21.5997098,26.0000006 L21.5997073,26 L21.5997073,26 Z M22.257162,27 L1.99328744,27 C0.899712682,27 0,26.1085295 0,25.008845 L0,6.991155 C0,5.88967395 0.896666251,5 2.00276013,5 L13,5 L15,9 L26.9941413,9 C28.1029399,9 29,9.8932319 29,10.9950893 L29,18.5997095 C30.780838,19.510065 32,21.3626571 32,23.5 C32,26.5375663 29.5375663,29 26.5,29 C24.7920629,29 23.2659536,28.2215034 22.257162,27 L22.257162,27 L22.257162,27 Z M1,13 L1,6.99180311 C1,6.45530558 1.44401481,6 1.99173483,6 L12.4000244,6 L14.3599854,10 L26.9970172,10 C27.5461723,10 28,10.4481055 28,11.0008717 L28,13 L1,13 L1,13 L1,13 Z M26.5,28 C28.9852815,28 31,25.9852815 31,23.5 C31,21.0147185 28.9852815,19 26.5,19 C24.0147185,19 22,21.0147185 22,23.5 C22,25.9852815 24.0147185,28 26.5,28 L26.5,28 Z M23,23 L23,24 L30,24 L30,23 L23,23 L23,23 Z" id="folder-remove" sketch:type="MSShapeGroup"></path>
        </g>
    </g>
</svg>

<svg width="32" height="32" viewBox="0 0 32 32" xmlns="http://www.w3.org/2000/svg"><path d="M21.6 26H1.993A.993.993 0 0 1 1 25.008V14h27v4.207A5.5 5.5 0 0 0 21.6 26zm.657 1H1.993A1.997 1.997 0 0 1 0 25.009V6.99C0 5.89.897 5 2.003 5H13l2 4h11.994A2 2 0 0 1 29 10.995V18.6a5.5 5.5 0 1 1-6.743 8.4zM1 13V6.992A1 1 0 0 1 1.992 6H12.4l1.96 4h12.637c.55 0 1.003.448 1.003 1v2H1zm25.5 15a4.5 4.5 0 1 0 0-9 4.5 4.5 0 0 0 0 9zM23 23v1h7v-1h-7z" fill="#929292" fill-rule="evenodd"/></svg>
